X: 131003
Q: "Scotch Jig."
M: 6/8
L: 1/8
K: Am
|: uE |\
|: uB |\
vc2ve ug2ua | gec gec | G2B d2e | dge dBG |\
c2e g2a | gec deg | a2A AB^G | A3 e2 :|


